X:1
T:Avant 2 de travers
C:Danse traditionnelle du pays d'Ancenis, abc file by Bernard Loffet
L:1/8
Q:420
M:2/2
K:G
[D2G,2][D2G,2][G2G,2][G2G,2]|[B2G,2][B2G,2][A2D,2]D,2|[c2D,2][c2D,2][B2G,2][B2G,2]|[A2D,2][GG,]A[B2G,2][G2G,2]|[D2G,2][D2G,2][G2G,2][G2G,2]|[B2G,2][B2G,2][A2D,2]D,2| \
[c2D,2][c2D,2][B2G,2][B2G,2]|[A2D,2][A2D,2][G2G,2]G,2|[G2G,2][B2G,2][d2G,2][d2G,2]|[e2D,2][e2D,2][d2G,2]G,2|[c2D,2][c2D,2][B2G,2][B2G,2]|[A2D,2][GG,]A[B2G,2][G2G,2]| \
[G2G,2][B2G,2][d2G,2][d2G,2]|[e2D,2][e2D,2][d2G,2]G,2|[c2D,2][c2D,2][B2G,2][B2G,2]|[A2D,2][A2D,2][G2G,2]G,2| \
K:C
Z:Created with TablEdit http://www.tabledit.com/ by Bernard Loffet
